svg/media/fast_rewind_line.svg

<?xml version="1.0" encoding="UTF-8"?>
<svg width="24px" height="24px" viewBox="0 0 24 24" version="1.1" xmlns="http://www.w3.org/2000/svg" xmlns:xlink="http://www.w3.org/1999/xlink">
    <title>fast_rewind_line</title>
    <g id="页面-1" stroke="none" stroke-width="1" fill="none" fill-rule="evenodd">
        <g id="Media" transform="translate(-336.000000, 0.000000)">
            <g id="fast_rewind_line" transform="translate(336.000000, 0.000000)">
                 <path d="M24,0 L24,24 L0,24 L0,0 L24,0 Z M12.5934901,23.257841 L12.5819402,23.2595131 L12.5108777,23.2950439 L12.4918791,23.2987469 L12.4918791,23.2987469 L12.4767152,23.2950439 L12.4056548,23.2595131 C12.3958229,23.2563662 12.3870493,23.2590235 12.3821421,23.2649074 L12.3780323,23.275831 L12.360941,23.7031097 L12.3658947,23.7234994 L12.3769048,23.7357139 L12.4804777,23.8096931 L12.4953491,23.8136134 L12.4953491,23.8136134 L12.5071152,23.8096931 L12.6106902,23.7357139 L12.6232938,23.7196733 L12.6232938,23.7196733 L12.6266527,23.7031097 L12.609561,23.275831 C12.6075724,23.2657013 12.6010112,23.2592993 12.5934901,23.257841 L12.5934901,23.257841 Z M12.8583906,23.1452862 L12.8445485,23.1473072 L12.6598443,23.2396597 L12.6498822,23.2499052 L12.6498822,23.2499052 L12.6471943,23.2611114 L12.6650943,23.6906389 L12.6699349,23.7034178 L12.6699349,23.7034178 L12.678386,23.7104931 L12.8793402,23.8032389 C12.8914285,23.8068999 12.9022333,23.8029875 12.9078286,23.7952264 L12.9118235,23.7811639 L12.8776777,23.1665331 C12.8752882,23.1545897 12.8674102,23.1470016 12.8583906,23.1452862 L12.8583906,23.1452862 Z M12.1430473,23.1473072 C12.1332178,23.1423925 12.1221763,23.1452606 12.1156365,23.1525954 L12.1099173,23.1665331 L12.0757714,23.7811639 C12.0751323,23.7926639 12.0828099,23.8018602 12.0926481,23.8045676 L12.108256,23.8032389 L12.3092106,23.7104931 L12.3186497,23.7024347 L12.3186497,23.7024347 L12.3225043,23.6906389 L12.340401,23.2611114 L12.337245,23.2485176 L12.337245,23.2485176 L12.3277531,23.2396597 L12.1430473,23.1473072 Z" id="MingCute" fill-rule="nonzero"></path>
                <path d="M19.7876,5.6272 C20.5651,5.26809 21.4681,5.83063 21.5709,6.74113 C21.6634,7.56004 21.8398,9.45899 21.8398,12.032 C21.8398,14.6364 21.6591,16.5498 21.5677,17.351 C21.4689,18.2172 20.6249,18.7229 19.8538,18.3685 C19.1621,18.0506 17.5603,17.2694 15.4688,15.9613 C14.3967,15.2907 13.4996,14.6716 12.799,14.1614 C12.7402,15.6762 12.6319,16.7881 12.5677,17.351 C12.4689,18.2172 11.6249,18.7229 10.8538,18.3685 C10.1621,18.0506 8.56026,17.2694 6.46879,15.9613 C4.37795,14.6535 2.95279,13.5416 2.35245,13.0513 C1.6829,12.5046 1.66596,11.4589 2.31001,10.9335 C2.90681,10.4467 4.35145,9.31795 6.42517,8.02092 C8.4745,6.73914 10.0856,5.95138 10.7876,5.6272 C11.5651,5.26809 12.4681,5.83063 12.5709,6.74113 C12.634,7.29964 12.7361,8.36049 12.7947,9.79493 C13.4926,9.287 14.3788,8.67538 15.4252,8.02092 C17.4745,6.73914 19.0856,5.95138 19.7876,5.6272 Z M19.9008,11.9608 C19.9008,10.2702 19.8215,8.88763 19.7442,7.94069 C18.9466,8.34307 17.7996,8.96141 16.4517,9.80453 C15.0572,10.6767 13.9624,11.4674 13.2416,12.0178 C13.9544,12.5603 15.0276,13.332 16.4094,14.1963 C17.7919,15.061 18.9459,15.6822 19.736,16.0797 C19.8159,15.1308 19.9008,13.7107 19.9008,11.9608 Z M10.8992,12.3709 C10.8182,12.1015 10.818,11.8127 10.8992,11.5487 C10.8877,10.0451 10.8151,8.80951 10.7442,7.94069 C9.94655,8.34307 8.79964,8.96141 7.45165,9.80453 C6.05717,10.6767 4.9624,11.4674 4.24161,12.0178 C4.9544,12.5603 6.02759,13.332 7.40942,14.1963 C8.79194,15.061 9.94589,15.6822 10.736,16.0797 C10.8095,15.2061 10.8873,13.933 10.8992,12.3709 Z" id="形状" fill="#09244B"></path>
            </g>
        </g>
    </g>
</svg>

<svg xmlns="http://www.w3.org/2000/svg" width="24" height="24"><g fill="none" fill-rule="evenodd"><path d="M24 0v24H0V0h24ZM12.593 23.258l-.011.002-.071.035-.02.004-.014-.004-.071-.035c-.01-.004-.019-.001-.024.005l-.004.01-.017.428.005.02.01.013.104.074.015.004.012-.004.104-.074.012-.016.004-.017-.017-.427c-.002-.01-.009-.017-.017-.018Zm.265-.113-.013.002-.185.093-.01.01-.003.011.018.43.005.012.008.007.201.093c.012.004.023 0 .029-.008l.004-.014-.034-.614c-.003-.012-.01-.02-.02-.022Zm-.715.002a.023.023 0 0 0-.027.006l-.006.014-.034.614c0 .012.007.02.017.024l.015-.002.201-.093.01-.008.004-.011.017-.43-.003-.012-.01-.01-.184-.092Z"/><path fill="#09244B" d="M19.788 5.627c.777-.359 1.68.204 1.783 1.114.092.819.269 2.718.269 5.291 0 2.604-.18 4.518-.272 5.319-.1.866-.943 1.372-1.714 1.018-.692-.318-2.294-1.1-4.385-2.408a45.898 45.898 0 0 1-2.67-1.8 43.663 43.663 0 0 1-.231 3.19c-.1.866-.943 1.372-1.714 1.018-.692-.318-2.294-1.1-4.385-2.408-2.091-1.308-3.516-2.42-4.117-2.91-.67-.546-.686-1.592-.042-2.117.597-.487 2.041-1.616 4.115-2.913 2.05-1.282 3.66-2.07 4.363-2.394.777-.359 1.68.204 1.783 1.114.063.559.165 1.62.224 3.054a45.396 45.396 0 0 1 2.63-1.774c2.05-1.282 3.66-2.07 4.363-2.394Zm.113 6.334c0-1.69-.08-3.073-.157-4.02a41.645 41.645 0 0 0-3.292 1.864 42.284 42.284 0 0 0-3.21 2.213 42.381 42.381 0 0 0 3.167 2.178 41.583 41.583 0 0 0 3.327 1.884c.08-.95.165-2.37.165-4.12Zm-9.002.41a1.42 1.42 0 0 1 0-.822 49.358 49.358 0 0 0-.155-3.608 41.651 41.651 0 0 0-3.292 1.864 42.283 42.283 0 0 0-3.21 2.213 42.374 42.374 0 0 0 3.167 2.178 41.585 41.585 0 0 0 3.327 1.884c.073-.874.151-2.147.163-3.71Z"/></g></svg>
